X:326
T:Road to Cashel, The
T:Chestnut Tree, The
T:Cabin Hunter, The
R:reel
H:Charlie Lennon claims to have composed this, but it appears
H:as "The Cabin Hunter" in CRE 1 from 1968.
D:Dervish: The Boys of Sligo
D:Kevin Burke: Up Close
Z:id:hn-reel-326
M:C|
K:Edor
G|:FE~E2 ~E3G|FE~E2 DFAd|FE~E2 ~E3G|1 FDFA dBAG:|2 FDFA BdAF||
~B3e efec|defg afed|Bege f2ec|dBAF FEFA|
~B3e efec|defg afef|bf~f2 af~f2|dfbf edBA||
P:Variations
|:FEED ~E3B|FE~E2 DFAB|FEED E2BA|1 FDFA BdAB:|2 FDFA BdAd||
BABd egfe|dfab afed|Bdge ~f3e|dBAF FEE2|
~B3d e2fe|dfab afef|bf~f2 afef|bfaf edBA||

